X:1
T:Title
%%score { ( 1 3 ) | ( 2 4 ) }
L:1/8
M:4/4
K:G
V:1 treble nm="Grand Piano"
V:3 treble 
V:2 bass 
V:4 bass 
V:1
 z4 z2[Q:1/4=100] [B,D]2 | [B,D]3 [B,D] [B,E][B,F][B,A][B,G] | B4 z4 | %3
 [Ec]3 [Ec] [Ec][Ec][EG][^DA] |[M:3/4] [DB]6 |[M:1/4] [B,D]2 | %6
[M:4/4] [B,D]3 [B,D] [B,E][B,F][B,A][B,G] | [DB]4 G2 B2 | A3 A BAB^c |[M:3/4] [Fd]4 z2 | %10
[M:1/4] D2 |[M:4/4] [DFc]3 [DGc] [DAc][DFc][DFB][DFA] | [DGB]4 [DG]2 [G,=FG]2 | %13
 [G,EG]3 [G,EG] [G,EG][G,E][G,EG][EA] |[M:3/4] [^DB]6 |[M:1/4] B2 | %16
[M:4/4] [EA]2 [Ee]2 [Ed]2 .[Ec]2 | [DGB]2 [=Fd]2 [Ec]2 [^DA]2 | G3 G GFEF |[M:3/4] [B,G]4 z2 |] %20
V:2
 z4 z2 [G,,D,]2 | [G,,D,]3 [G,,D,] [G,,D,][G,,D,][G,,D,][G,,D,] | D,4 z2 [B,,G,]2 | %3
 [C,G,]3 [C,G,] [C,G,][C,G,][C,G,][C,G,] |[M:3/4] [G,,G,]6 |[M:1/4] [G,,D,]2 | %6
[M:4/4] [G,,D,]3 [G,,D,] [G,,D,][G,,D,][G,,D,][G,,D,] | z4 B,2[K:treble] [G,DG]2 | %8
 [A,DF]3 [A,DF] [A,^CG][A,CG][A,G][A,G] |[M:3/4][K:bass] [D,A,]4 z2 |[M:1/4] D,2 | %11
[M:4/4] D,3 E, F,D,D,D, | G,6 z2 | C,3 C, C,C,C,[C,E,] |[M:3/4] [B,,F,]6 |[M:1/4] [^G,E]2 | %16
[M:4/4] [C,A,]2 [C,A,]2 [B,,^G,]2 z F | B,,2 [B,,^G,]2 [C,A,]2 [C,C]2 | %18
 [D,B,D]3 [D,_B,^C] [D,A,=C][D,A,C][D,G,C][D,A,C] |[M:3/4] [G,,G,]4 z2 |] %20
V:3
 x8 | x8 | B,4- [G,B,G]2 [=FG]2 | x8 |[M:3/4] x6 |[M:1/4] x2 |[M:4/4] x8 | x8 | x8 |[M:3/4] x6 | %10
[M:1/4] x2 |[M:4/4] x8 | x8 | x8 |[M:3/4] x6 |[M:1/4] z D, |[M:4/4] x8 | x8 | x8 |[M:3/4] x6 |] %20
V:4
 x8 | x8 | G,,6 z2 | x8 |[M:3/4] x6 |[M:1/4] x2 |[M:4/4] x8 | [G,,G,]6[K:treble] z2 | x8 | %9
[M:3/4][K:bass] x6 |[M:1/4] x2 |[M:4/4] x8 | z4 B,2 B,,2 | x8 |[M:3/4] x6 |[M:1/4] E, z | %16
[M:4/4] z4 z2 [A,,A,]2 | x8 | x8 |[M:3/4] x6 |] %20

